X: 3
T: Charlie Hunter
R: jig
M: 6/8
L: 1/8
K: Dmaj
DFA GBd|Adf a2g|f2d Bcd|ecA GFE|
DFA GBd|Adf a2g|faf gec|edc d2f:|
afd d2c|BGF G2F|EGB e2d|cAA A2e|
fdA DFA|GBd g2e|faf gec|edc d2f:|


Tune 809	Setting 25106

